!!!!SEGMENT: pl-sa--l-1636--058_anonim--keyboard-piece.krn
!!!cenid: 17xx:765
!!!COM: Anonim
!!!COM-rismID: pe30004985
!!!CDT:
!!!CNT:
!!!OTL: [Keyboard piece]
!!!PDT:
!!!AGN: Secular
!!!SMS-siglum: PL-SA
!!!SMS-shelfmark: L 1636
!!!SMS-shelfwork: 058 W
!!!SMS-variant:
!!!SMS-altvar:
!!!NIFC-rismSourceID: 1001076837
!!!NIFC-islandoraID:
!!!URL-pdf-islandora:
!!!URL-scan:
!!!ONB-nifc: 15v-16r, skan 0019, s. 3-7
!!!AIN: 2 empty
!!!key:
**kern	**kern
*part2	*part1
*staff2	*staff1
*Iempty	*Iempty
*I"	*I"
*clefF4	*clefC1
*k[]	*k[]
*a:	*a:
*M2/2	*M2/2
*met(c|)	*met(c|)
=1	=1
!LO:SIC:o:s:=:v:all\right	!LO:SIC:o:s:=:v:all\right
1A\ 1E\ 1AA\	1ee\ 1cc\ 1a\
=2-	=2-
*2\right	*2\right
*^	*^
2A/ 2E/	2AA\	2ee/ 2cc/	2a\
2B/	2G#X\	4ee/	2g#X\
.	.	4dd/	.
=3	=3	=3	=3
2B/	2G#X\	4dd/	2b\ 2g#X\
.	.	4ee/	.
2A/ 2E/	2AA\	32cc\LLL	2ryy
.	.	32b\	.
.	.	32cc\	.
.	.	32b\	.
.	.	32cc\	.
.	.	32b\	.
.	.	32cc\	.
.	.	32b\JJJ	.
!	!	!LO:N:vis=16	!
.	.	32cc\LLL	.
!	!	!LO:N:vis=16	!
.	.	32b\	.
!	!	!LO:N:vis=16	!
.	.	32cc\	.
!	!	!LO:N:vis=16	!
.	.	32b\JJJ	.
.	.	8a/	.
*v	*v	*	*
*	*v	*v
=4	=4
*	*^
2E/ 2EE/	2e\	2b/ 2g#X/
2BB/	2e\	2b/ 2g#/
=5	=5	=5
!LO:SIC:o:s:=:v:uszkodzony papier	!	!
2ryy	2b/ 2f#X/	2d\
2G#X\	2b\ 2g#X\	2e\
=6	=6	=6
*^	*	*
2A/ 2E/	2AA\	4cc/ 4a/	4e\
.	.	32cc\LLL	4ryy
.	.	32f\	.
.	.	32g\	.
.	.	32a\	.
.	.	32b\	.
.	.	32cc\	.
.	.	32dd\	.
.	.	32ee\JJJ	.
4.AA/	2ryy	4.cc\	2ryy
8GG/	.	8dd\	.
*	*	*v	*v
!!LO:LB:g=original
=7	=7	=7
4C/	8AA\L	16ee\LL
.	.	16cc\
.	8GG\J	16a\
.	.	16ee\JJ
!	!	!LO:TX:a:t=P:problem=mixed beam
2.AA/	2.FF\	8e/L
.	.	8ee\J
.	.	32dd\LLL
.	.	32ee\
.	.	32dd\
.	.	32ee\
.	.	32dd\
.	.	32ee\
.	.	32dd\
.	.	32ee\JJJ
!	!	!LO:N:vis=16
.	.	32dd\LLL
!	!	!LO:N:vis=16
.	.	32ee\
!	!	!LO:N:vis=16
.	.	32dd\
!	!	!LO:N:vis=16
.	.	32ee\JJJ
!	!	!LO:N:vis=8.
.	.	16.dd\LL
!	!	!LO:N:vis=32
.	.	64cc\LL
!	!	!LO:N:vis=32
.	.	64dd\JJJJ
*v	*v	*
=8	=8
1E/ 1EE/	2ee/ 2b/ 2g#X/
.	16r
.	16ee\LL
.	16ff#X\
.	16gg#X\JJ
.	16aa\LL
.	16cc\
.	16dd\
.	16ee\JJ
=9	=9
*	*^
16a>\LL	2cc\	2ee/
16e>\	.	.
16f>\	.	.
16g>\JJ	.	.
16a>\LL	.	.
16c>\	.	.
16d>\	.	.
16e>\JJ	.	.
16A\LL	2ee/	2cc\
16E\	.	.
16F\	.	.
16G\JJ	.	.
!LO:TX:a:t=P:problem=mixed beam	!	!
16A\LL	.	.
16C/	.	.
16D/	.	.
16E/JJ	.	.
!!LO:PB:g=original
=10	=10	=10
2AA/	2ee/ 2cc/	2a\
4E\	4ee/ 4b/	4g#X\
4C#X/	4ee/ 4cc#X/	4a\
*	*v	*v
=11	=11
*^	*
4A/	4D\	16ff\LL
.	.	16ee\
.	.	16dd\
.	.	16cc\JJ
4G#X/	4E\	16b\LL
.	.	16a\
.	.	16b\
!	!	!LO:TX:a:t=P:problem=# above
.	.	16g#X\JJ
!	!	!LO:TX:a:t=P:problem=mixed beam
4A/	4AA\	16a\LL
.	.	16e/
!	!	!LO:SIC:o:s:=:v:16f#
.	.	16f/
.	.	16g#/JJ
4c/	4A\	16a\LL
.	.	16b\
.	.	16cc\
.	.	16dd\JJ
=12	=12	=12
4B/	4G\	16ee\LL
.	.	16ff\
.	.	16gg\
.	.	32ff\L
.	.	32ee\JJJ
4c/	4A\	16aa\LL
!	!	!LO:TX:a:t=P:problem=# above
.	.	16gg#X\
.	.	16aa\
.	.	16bb\JJ
2B/	4E\	16gg#\LL
!	!	!LO:TX:a:t=P:problem=# above
.	.	16ff#X\
.	.	16gg#\
.	.	16aa\JJ
.	4D\	16ff#\LL
.	.	16ee\
.	.	16ff#\
.	.	16dd\JJ
*v	*v	*
=13	=13
4c\	16r
.	16ee\LL
.	16dd\
.	16cc\JJ
4d\	16b\LL
.	16a\
!	!LO:SIC:o:s:=:v:uszkodzony papier
.	16g\yy
.	16f\JJ
16r	2b\ 2g#X\
16e\LL	.
16d\	.
16c\JJ	.
16B\LL	.
16A\	.
16G\	.
16F\JJ	.
!!LO:LB:g=original
=14	=14
16E\LL	1ee\ 1b\ 1g#X\
16B\	.
16A\	.
16G\JJ	.
16F\LL	.
16E\	.
16D\	.
16C\JJ	.
16BB\LL	.
16E\	.
16D\	.
16C\JJ	.
16BB/LL	.
16AA/	.
16GG/	.
16FF/JJ	.
=15	=15
*^	*^
*	*	*	*^
2EE/	2ryy	1b/	2g#X/	2e\
4.B/	2BB\	.	4g#/	4e\
!	!	!LO:SIC:o:s:=:v:4f#	!	!
.	.	.	4f/	4d#X\
8A/	.	.	.	.
*v	*v	*	*	*
*	*	*v	*v
=16	=16	=16
1E/ 1EE/	2b/ 2g#X/	2e\
.	2b/ 2g#/	2e\
=17	=17	=17
16E\LL	4b/ 4g#X/	4e\
16D\	.	.
16C\	.	.
16BB\JJ	.	.
16AA/LL	4cc/	4a\
16BB/	.	.
16C/	.	.
16AA/JJ	.	.
16E\LL	4b/ 4g#X/	4e\
16F#X\	.	.
!LO:SIC:o:s:=:v:16G#	!	!
16G\	.	.
16E\JJ	.	.
16A\LL	4cc/	4a\
16G\	.	.
16F#\	.	.
16E\JJ	.	.
!!LO:LB:g=original
=18	=18	=18
16D\LL	4dd/ 4a/	4f\
16E\	.	.
16F\	.	.
16D\JJ	.	.
16A\LL	4ee/	4cc#X\
16B\	.	.
16c#X\	.	.
16A\JJ	.	.
16d\LL	4ff/ 4dd/	4a\
!LO:SIC:o:s:=:v:16cn	!	!
16c#\	.	.
16B\	.	.
16A\JJ	.	.
16G\LL	4gg/ 4dd/	4b\
16A\	.	.
16B\	.	.
16G\JJ	.	.
=19	=19	=19
16c\LL	4gg/ 4ee/	4cc\
16B\	.	.
16A\	.	.
16G\JJ	.	.
16F\LL	4aa/ 4ff/	4cc\
16G\	.	.
16A\	.	.
16F\JJ	.	.
16B\LL	4ff#X/ 4dd/	4b\
16A\	.	.
!LO:SIC:o:s:=:v:16G#	!	!
16G\	.	.
!LO:TX:a:t=P:problem=# above	!	!
16F#X\JJ	.	.
16E\LL	4gg/ 4ee/	4b\
16F#\	.	.
!LO:SIC:o:s:=:v:16G#	!	!
16G\	.	.
16E\JJ	.	.
=20	=20	=20
16A\LL	4ee/ 4cc/	4a\
16G\	.	.
16F\	.	.
16E\JJ	.	.
16D\LL	4ffn/ 4dd/	4a\
16E\	.	.
16F\	.	.
16D\JJ	.	.
16E\LL	4ee/ 4b/	4g#X\
16D\	.	.
16C\	.	.
16BB\JJ	.	.
16AA/LL	4ee/ 4cc/	4a\
16BB/	.	.
16C/	.	.
16AA/JJ	.	.
=21	=21	=21
!LO:TX:a:t=P:problem=mixed beam	!	!
8D/L	2b/	2g#X\
8BB/	.	.
8E\	.	.
8EE/J	.	.
*	*v	*v
2AA/	2cc/ 2a/ 2e/
==	==
*-	*-
!!!system-decoration: s1,s2
!!!RDF**kern: > = above
!!!RDF**kern: < = below
!!!EED: Leszek Kubiak
!!!EEV: 2020-12-08
!!!ENC: Andrzej Borzym
!!!END: 2020-06-12
!!!YEC: Copyright 2022 Narodowy Instytut Fryderyka Chopina (https://polishscores.org)
!!!YEM: Licence CC BY 4.0 (https://creativecommons.org/licenses/by/4.0)
